X: 24833
T: Maggie Watson's Farewell To Blackhammer
R: barndance
M: 4/4
K: Dmajor
A2d2 f>ef>g|a2f2 f>ed2|A2c2 e>fg>e|d2f2 f>ga2|
A2d2 f>ef>g|a2f2 f>ed2|A2c2 e>fg>e|d2[d2f2] d3B:|
|:A2d2 f>ed>B|A2F2 F>GA2|G2E2 E>FG>B|A2F2 F>ED2|
A2d2 f>ed>B|A2F2 F>GA2|G2E2 c>AB>c|d2[d2f2] d3B:|
A2d2 f>ef>g|a2f2 f>ed2|A2c2 e>fg>e|d2f2 f>ga2|
A2d2 f>ef>g|a2f2 f>ed2|A2c2 e>fg>e|d2[d2f2] d2=c2||
[K:G]|:B6 c2|d6 c2|B2d2 g3a|g2f2 f4|
A6 B2|c6 d2|f3e d3c|c2B2 B2^A2|
B6 c2|d6 c2|B2d2 g3b|b2a2 a4|
a6 g2|f6 e2|d2a2 e3f|a2g2 g4:|
[K:D]A2d2 f>ef>g|a2f2 f>ed2|A2c2 e>fg>e|d2f2 f>ga2|
A2d2 f>ef>g|a2f2 f>ed2|A2c2 e>fg>e|d2[d2f2] d4||

